src/images/credit-card_icon.svg

<svg width="26" height="26" viewBox="0 0 26 26" fill="none" xmlns="http://www.w3.org/2000/svg">
<g clip-path="url(#clip0_20_676)">
<path d="M22.9608 7.16339V6.80772C22.9608 5.17271 21.6306 3.8425 19.9956 3.8425H2.96522C1.33016 3.84255 0 5.17271 0 6.80772V7.16339H22.9608Z" fill="#B1B1B1"/>
<path d="M13.5651 16.7017C13.5651 15.1636 14.0598 13.7017 14.9731 12.4968H0V16.6331C0 18.2681 1.33016 19.5983 2.96522 19.5983H14.1911C13.7813 18.7007 13.5651 17.7179 13.5651 16.7017ZM11.4804 15.803H8.92125V14.2796H11.4804V15.803ZM3.41545 14.2796H7.39781V15.803H3.41545V14.2796Z" fill="#B1B1B1"/>
<path d="M16.5547 10.9734C17.7165 10.1606 19.0967 9.72262 20.5443 9.72262C21.3822 9.72262 22.1973 9.86974 22.9608 10.1509V8.68689H0V10.9734H16.5547Z" fill="#B1B1B1"/>
<path d="M26 16.7017C26 13.6886 23.5574 11.246 20.5443 11.246C17.5312 11.246 15.0885 13.6886 15.0885 16.7017C15.0885 19.7148 17.5311 22.1574 20.5443 22.1574C23.5574 22.1574 26 19.7148 26 16.7017ZM21.2797 19.6163V20.2363H20.518V20.2363V20.2363H19.7562V19.6209C19.2957 19.4649 18.9189 19.1906 18.5509 18.9215L19.4503 17.6918C19.9446 18.0534 20.1976 18.2271 20.5443 18.2271C20.7403 18.2271 20.899 18.1339 20.9585 17.9837C21.0305 17.8019 20.9287 17.6344 20.6861 17.5356C20.6861 17.5356 19.5973 17.1725 19.0939 16.6593C18.6715 16.2287 18.5372 15.6219 18.6716 15.0447C18.807 14.4635 19.1995 14.009 19.7562 13.7821V13.167H21.2797V13.7566C21.6666 13.8641 21.9941 14.0229 22.1824 14.1251L21.4555 15.4639C20.9736 15.2024 20.5303 15.1238 20.3577 15.1828C20.1903 15.24 20.1649 15.3492 20.1553 15.3903C20.1417 15.4486 20.1345 15.538 20.2276 15.6418C20.3172 15.7416 21.2605 16.1247 21.2605 16.1247C22.2782 16.539 22.7572 17.5795 22.3747 18.5449C22.176 19.0466 21.7761 19.4266 21.2797 19.6163Z" fill="#B1B1B1"/>
</g>
<defs>
<clipPath id="clip0_20_676">
<rect width="26" height="26" fill="white"/>
</clipPath>
</defs>
</svg>

<svg xmlns="http://www.w3.org/2000/svg" width="26" height="26" fill="none"><g fill="#B1B1B1" clip-path="url(#a)"><path d="M22.96 7.163v-.355a2.969 2.969 0 0 0-2.964-2.966H2.966A2.969 2.969 0 0 0 0 6.809v.355h22.96ZM13.565 16.702c0-1.538.495-3 1.408-4.205H0v4.136a2.969 2.969 0 0 0 2.965 2.965h11.226a6.958 6.958 0 0 1-.626-2.896Zm-2.085-.899H8.921V14.28h2.56v1.523ZM3.415 14.28h3.983v1.523H3.415V14.28ZM16.555 10.973a6.929 6.929 0 0 1 3.99-1.25 6.98 6.98 0 0 1 2.416.428V8.687H0v2.286h16.555ZM26 16.702a5.456 5.456 0 1 0-10.911 0 5.456 5.456 0 0 0 10.911 0Zm-4.72 2.914v.62h-1.524v-.615c-.46-.156-.837-.43-1.205-.7l.9-1.23c.494.362.747.536 1.093.536.196 0 .355-.093.415-.243.072-.182-.03-.35-.273-.448 0 0-1.089-.364-1.592-.877-.422-.43-.557-1.037-.422-1.614a1.78 1.78 0 0 1 1.084-1.263v-.615h1.524v.59c.387.107.714.266.902.368l-.726 1.339c-.482-.262-.926-.34-1.098-.281-.168.057-.193.166-.203.207-.013.059-.02.148.073.252.09.1 1.032.483 1.032.483 1.018.414 1.497 1.454 1.115 2.42a1.895 1.895 0 0 1-1.095 1.071Z"/></g><defs><clipPath id="a"><path fill="#fff" d="M0 0h26v26H0z"/></clipPath></defs></svg>
